X:18435
T:Waltz,A, JMT.014
M:3/4
L:1/8
Q:80
S:J.Moore,Tyneside,1841.(10a)
R:Waltz
O:England
A:Northumbria
H:1841
Z:vmp.Chris Partington
K:F
c/B/|A/-c/f/c/a/c/|A/-c/f/c/a/c/|c/-B/A/B/g/B/|B/A/ A c/B/|!
A/-c/f/c/a/c/|A/-c/f/c/a/c/|c/-d/e/f/g/a/|f2:|!
|:c|cde| fga|b2a|agc|cde|fga|g/a/b/g/e/g/|f2:|!
|:c|c=B_B|A2f|e/-f/g/e/c/g/|f/g/ac|c=B_B|A2f|e/-f/g/e/c/g/|f2:|]


